replication/atom_indices/EAS_58_atomIndicesCap.svg

<?xml version="1.0" encoding="UTF-8"?>
<svg baseProfile="full" version="1.1" viewBox="0 0 800 200" xml:space="preserve" xmlns="http://www.w3.org/2000/svg">

 <!-- END OF HEADER -->
<rect width="800" height="200" fill="#fff"> </rect>
<path class="bond-0" d="m181.36 129.56-18.698 3.257" fill="none" stroke="#000" stroke-width="2px"/>
<path class="bond-0" d="m177.61 124.58-13.089 2.28" fill="none" stroke="#000" stroke-width="2px"/>
<path class="bond-1" d="m181.36 129.56 3.925-10.716" fill="none" stroke="#000" stroke-width="2px"/>
<path class="bond-1" d="m185.29 118.84 3.925-10.716" fill="none" stroke="#00f" stroke-width="2px"/>
<path class="bond-2" d="m187.04 98.877-5.032-6.0218" fill="none" stroke="#00f" stroke-width="2px"/>
<path class="bond-2" d="m182.01 92.855-5.032-6.0218" fill="none" stroke="#000" stroke-width="2px"/>
<path class="bond-2" d="m181.28 100.63-3.522-4.2149" fill="none" stroke="#00f" stroke-width="2px"/>
<path class="bond-2" d="m177.75 96.414-3.523-4.2152" fill="none" stroke="#000" stroke-width="2px"/>
<path class="bond-3" d="m164.48 83.714-10.059 1.7527" fill="none" stroke="#000" stroke-width="2px"/>
<path class="bond-4" d="m141.91 82.347-5.032-6.0218" fill="none" stroke="#000" stroke-width="2px"/>
<path class="bond-4" d="m136.88 76.325-5.032-6.0218" fill="none" stroke="#00f" stroke-width="2px"/>
<path class="bond-5" d="m144.08 91.597-6.156 16.806" fill="none" stroke="#000" stroke-width="2px"/>
<path class="bond-5" d="m148.37 96.026-4.309 11.765" fill="none" stroke="#000" stroke-width="2px"/>
<path class="bond-6" d="m140.1 117.65 10.064 12.044" fill="none" stroke="#000" stroke-width="2px"/>
<path class="bond-7" d="m127.6 114.53-5.029 0.877" fill="none" stroke="#000" stroke-width="2px"/>
<path class="bond-7" d="m122.57 115.41-5.03 0.876" fill="none" stroke="#00f" stroke-width="2px"/>
<path class="bond-8" d="m105.03 113.17-5.032-6.021" fill="none" stroke="#00f" stroke-width="2px"/>
<path class="bond-8" d="m100 107.14-5.0321-6.022" fill="none" stroke="#000" stroke-width="2px"/>
<path class="bond-8" d="m107.78 107.8-3.522-4.215" fill="none" stroke="#00f" stroke-width="2px"/>
<path class="bond-8" d="m104.26 103.59-3.523-4.2154" fill="none" stroke="#000" stroke-width="2px"/>
<path class="bond-9" d="m92.797 91.873 6.1559-16.807" fill="none" stroke="#000" stroke-width="2px"/>
<path class="bond-10" d="m82.464 98.003-6.9725 1.2148" fill="none" stroke="#000" stroke-width="2px"/>
<path class="bond-11" d="m109.29 68.936 5.03-0.8764" fill="none" stroke="#000" stroke-width="2px"/>
<path class="bond-11" d="m114.32 68.06 5.029-0.8763" fill="none" stroke="#00f" stroke-width="2px"/>
<path class="bond-11" d="m111.75 74.141 3.521-0.6135" fill="none" stroke="#000" stroke-width="2px"/>
<path class="bond-11" d="m115.27 73.527 3.521-0.6134" fill="none" stroke="#00f" stroke-width="2px"/>
<path class="bond-12" d="m62.072 105.89-6.1559 16.807" fill="none" stroke="#000" stroke-width="2px"/>
<path class="bond-13" d="m59.901 96.636-10.064-12.044" fill="none" stroke="#000" stroke-width="2px"/>
<path class="bond-13" d="m54.133 98.388-7.0449-8.4305" fill="none" stroke="#000" stroke-width="2px"/>
<path class="bond-14" d="m34.246 82.011-3.8854 0.6769" fill="none" stroke="#000" stroke-width="2px"/>
<path class="bond-15" d="m16.941 89.356-6.1558 16.806" fill="none" stroke="#000" stroke-width="2px"/>
<path class="bond-15" d="m21.229 93.785-4.3091 11.765" fill="none" stroke="#000" stroke-width="2px"/>
<path class="bond-16" d="m12.956 115.41 10.064 12.044" fill="none" stroke="#000" stroke-width="2px"/>
<path class="bond-17" d="m38.61 130.04 3.8855-0.677" fill="none" stroke="#000" stroke-width="2px"/>
<path class="bond-17" d="m38.241 124.47 2.7199-0.473" fill="none" stroke="#000" stroke-width="2px"/>
<text x="182.27" y="108.127" fill="#0000FF" font-family="sans-serif" font-size="9px"><tspan>N:1</tspan></text>
<text x="164.476" y="86.8336" fill="#000000" font-family="sans-serif" font-size="9px"><tspan>C:2</tspan></text>
<text x="137.139" y="91.5967" fill="#000000" font-family="sans-serif" font-size="9px"><tspan>C:3</tspan></text>
<text x="127.595" y="117.653" fill="#000000" font-family="sans-serif" font-size="9px"><tspan>C:4</tspan></text>
<text x="145.389" y="138.946" fill="#000000" font-family="sans-serif" font-size="9px"><tspan>C:5</tspan></text>
<text x="100.258" y="122.416" fill="#0000FF" font-family="sans-serif" font-size="9px"><tspan>N:6</tspan></text>
<text x="82.4642" y="101.123" fill="#000000" font-family="sans-serif" font-size="9px"><tspan>C:7</tspan></text>
<text x="92.0079" y="75.0664" fill="#000000" font-family="sans-serif" font-size="9px"><tspan>C:8</tspan></text>
<text x="119.345" y="70.3033" fill="#0000FF" font-family="sans-serif" font-size="9px"><tspan>N:9</tspan></text>
<text x="52.0398" y="105.886" fill="#000000" font-family="sans-serif" font-size="9px"><tspan>C:10</tspan></text>
<text x="34.2461" y="84.5925" fill="#000000" font-family="sans-serif" font-size="9px"><tspan>C:11</tspan></text>
<text x="6.90871" y="89.3555" fill="#000000" font-family="sans-serif" font-size="9px"><tspan>C:12</tspan></text>
<text x="-2.63507" y="115.412" fill="#000000" font-family="sans-serif" font-size="9px"><tspan>C:13</tspan></text>
<text x="15.1586" y="136.705" fill="#000000" font-family="sans-serif" font-size="9px"><tspan>C:14</tspan></text>
<text x="42.496" y="131.942" fill="#000000" font-family="sans-serif" font-size="9px"><tspan>C:15</tspan></text>
<text x="70.3745" y="194" fill="#000000" font-family="sans-serif" font-size="11px"><tspan>comp262</tspan></text>
</svg>

<?xml version='1.0' encoding='iso-8859-1'?>
<svg version='1.1' baseProfile='full'
              xmlns='http://www.w3.org/2000/svg'
                      xmlns:rdkit='http://www.rdkit.org/xml'
                      xmlns:xlink='http://www.w3.org/1999/xlink'
                  xml:space='preserve'
width='800px' height='200px' viewBox='0 0 800 200'>
<!-- END OF HEADER -->
<rect style='opacity:1.0;fill:#FFFFFF;stroke:none' width='800' height='200' x='0' y='0'> </rect>
<path class='bond-0' d='M 181.365,129.559 L 162.667,132.816' style='fill:none;fill-rule:evenodd;stroke:#000000;stroke-width:2px;stroke-linecap:butt;stroke-linejoin:miter;stroke-opacity:1' />
<path class='bond-0' d='M 177.608,124.58 L 164.519,126.86' style='fill:none;fill-rule:evenodd;stroke:#000000;stroke-width:2px;stroke-linecap:butt;stroke-linejoin:miter;stroke-opacity:1' />
<path class='bond-1' d='M 181.365,129.559 L 185.29,118.843' style='fill:none;fill-rule:evenodd;stroke:#000000;stroke-width:2px;stroke-linecap:butt;stroke-linejoin:miter;stroke-opacity:1' />
<path class='bond-1' d='M 185.29,118.843 L 189.215,108.127' style='fill:none;fill-rule:evenodd;stroke:#0000FF;stroke-width:2px;stroke-linecap:butt;stroke-linejoin:miter;stroke-opacity:1' />
<path class='bond-2' d='M 187.044,98.8772 L 182.012,92.8554' style='fill:none;fill-rule:evenodd;stroke:#0000FF;stroke-width:2px;stroke-linecap:butt;stroke-linejoin:miter;stroke-opacity:1' />
<path class='bond-2' d='M 182.012,92.8554 L 176.98,86.8336' style='fill:none;fill-rule:evenodd;stroke:#000000;stroke-width:2px;stroke-linecap:butt;stroke-linejoin:miter;stroke-opacity:1' />
<path class='bond-2' d='M 181.276,100.629 L 177.754,96.4141' style='fill:none;fill-rule:evenodd;stroke:#0000FF;stroke-width:2px;stroke-linecap:butt;stroke-linejoin:miter;stroke-opacity:1' />
<path class='bond-2' d='M 177.754,96.4141 L 174.231,92.1989' style='fill:none;fill-rule:evenodd;stroke:#000000;stroke-width:2px;stroke-linecap:butt;stroke-linejoin:miter;stroke-opacity:1' />
<path class='bond-3' d='M 164.476,83.7139 L 154.417,85.4666' style='fill:none;fill-rule:evenodd;stroke:#000000;stroke-width:2px;stroke-linecap:butt;stroke-linejoin:miter;stroke-opacity:1' />
<path class='bond-4' d='M 141.913,82.3469 L 136.881,76.3251' style='fill:none;fill-rule:evenodd;stroke:#000000;stroke-width:2px;stroke-linecap:butt;stroke-linejoin:miter;stroke-opacity:1' />
<path class='bond-4' d='M 136.881,76.3251 L 131.849,70.3033' style='fill:none;fill-rule:evenodd;stroke:#0000FF;stroke-width:2px;stroke-linecap:butt;stroke-linejoin:miter;stroke-opacity:1' />
<path class='bond-5' d='M 144.084,91.5967 L 137.928,108.403' style='fill:none;fill-rule:evenodd;stroke:#000000;stroke-width:2px;stroke-linecap:butt;stroke-linejoin:miter;stroke-opacity:1' />
<path class='bond-5' d='M 148.372,96.0264 L 144.063,107.791' style='fill:none;fill-rule:evenodd;stroke:#000000;stroke-width:2px;stroke-linecap:butt;stroke-linejoin:miter;stroke-opacity:1' />
<path class='bond-6' d='M 140.099,117.653 L 150.163,129.697' style='fill:none;fill-rule:evenodd;stroke:#000000;stroke-width:2px;stroke-linecap:butt;stroke-linejoin:miter;stroke-opacity:1' />
<path class='bond-7' d='M 127.595,114.533 L 122.566,115.41' style='fill:none;fill-rule:evenodd;stroke:#000000;stroke-width:2px;stroke-linecap:butt;stroke-linejoin:miter;stroke-opacity:1' />
<path class='bond-7' d='M 122.566,115.41 L 117.536,116.286' style='fill:none;fill-rule:evenodd;stroke:#0000FF;stroke-width:2px;stroke-linecap:butt;stroke-linejoin:miter;stroke-opacity:1' />
<path class='bond-8' d='M 105.032,113.166 L 100,107.145' style='fill:none;fill-rule:evenodd;stroke:#0000FF;stroke-width:2px;stroke-linecap:butt;stroke-linejoin:miter;stroke-opacity:1' />
<path class='bond-8' d='M 100,107.145 L 94.9679,101.123' style='fill:none;fill-rule:evenodd;stroke:#000000;stroke-width:2px;stroke-linecap:butt;stroke-linejoin:miter;stroke-opacity:1' />
<path class='bond-8' d='M 107.781,107.801 L 104.259,103.586' style='fill:none;fill-rule:evenodd;stroke:#0000FF;stroke-width:2px;stroke-linecap:butt;stroke-linejoin:miter;stroke-opacity:1' />
<path class='bond-8' d='M 104.259,103.586 L 100.736,99.3706' style='fill:none;fill-rule:evenodd;stroke:#000000;stroke-width:2px;stroke-linecap:butt;stroke-linejoin:miter;stroke-opacity:1' />
<path class='bond-9' d='M 92.7971,91.873 L 98.953,75.0664' style='fill:none;fill-rule:evenodd;stroke:#000000;stroke-width:2px;stroke-linecap:butt;stroke-linejoin:miter;stroke-opacity:1' />
<path class='bond-10' d='M 82.4642,98.0031 L 75.4917,99.2179' style='fill:none;fill-rule:evenodd;stroke:#000000;stroke-width:2px;stroke-linecap:butt;stroke-linejoin:miter;stroke-opacity:1' />
<path class='bond-11' d='M 109.286,68.9363 L 114.316,68.0599' style='fill:none;fill-rule:evenodd;stroke:#000000;stroke-width:2px;stroke-linecap:butt;stroke-linejoin:miter;stroke-opacity:1' />
<path class='bond-11' d='M 114.316,68.0599 L 119.345,67.1836' style='fill:none;fill-rule:evenodd;stroke:#0000FF;stroke-width:2px;stroke-linecap:butt;stroke-linejoin:miter;stroke-opacity:1' />
<path class='bond-11' d='M 111.747,74.1409 L 115.268,73.5274' style='fill:none;fill-rule:evenodd;stroke:#000000;stroke-width:2px;stroke-linecap:butt;stroke-linejoin:miter;stroke-opacity:1' />
<path class='bond-11' d='M 115.268,73.5274 L 118.789,72.914' style='fill:none;fill-rule:evenodd;stroke:#0000FF;stroke-width:2px;stroke-linecap:butt;stroke-linejoin:miter;stroke-opacity:1' />
<path class='bond-12' d='M 62.0718,105.886 L 55.9159,122.693' style='fill:none;fill-rule:evenodd;stroke:#000000;stroke-width:2px;stroke-linecap:butt;stroke-linejoin:miter;stroke-opacity:1' />
<path class='bond-13' d='M 59.901,96.6361 L 49.8369,84.5925' style='fill:none;fill-rule:evenodd;stroke:#000000;stroke-width:2px;stroke-linecap:butt;stroke-linejoin:miter;stroke-opacity:1' />
<path class='bond-13' d='M 54.1327,98.3883 L 47.0878,89.9578' style='fill:none;fill-rule:evenodd;stroke:#000000;stroke-width:2px;stroke-linecap:butt;stroke-linejoin:miter;stroke-opacity:1' />
<path class='bond-14' d='M 34.2461,82.0107 L 30.3607,82.6876' style='fill:none;fill-rule:evenodd;stroke:#000000;stroke-width:2px;stroke-linecap:butt;stroke-linejoin:miter;stroke-opacity:1' />
<path class='bond-15' d='M 16.9407,89.3555 L 10.7849,106.162' style='fill:none;fill-rule:evenodd;stroke:#000000;stroke-width:2px;stroke-linecap:butt;stroke-linejoin:miter;stroke-opacity:1' />
<path class='bond-15' d='M 21.2286,93.7853 L 16.9195,105.55' style='fill:none;fill-rule:evenodd;stroke:#000000;stroke-width:2px;stroke-linecap:butt;stroke-linejoin:miter;stroke-opacity:1' />
<path class='bond-16' d='M 12.9557,115.412 L 23.0198,127.456' style='fill:none;fill-rule:evenodd;stroke:#000000;stroke-width:2px;stroke-linecap:butt;stroke-linejoin:miter;stroke-opacity:1' />
<path class='bond-17' d='M 38.6105,130.037 L 42.496,129.36' style='fill:none;fill-rule:evenodd;stroke:#000000;stroke-width:2px;stroke-linecap:butt;stroke-linejoin:miter;stroke-opacity:1' />
<path class='bond-17' d='M 38.2407,124.468 L 40.9606,123.995' style='fill:none;fill-rule:evenodd;stroke:#000000;stroke-width:2px;stroke-linecap:butt;stroke-linejoin:miter;stroke-opacity:1' />
<text x='182.27' y='108.127' style='font-size:9px;font-style:normal;font-weight:normal;fill-opacity:1;stroke:none;font-family:sans-serif;text-anchor:start;fill:#0000FF' ><tspan>N:1</tspan></text>
<text x='164.476' y='86.8336' style='font-size:9px;font-style:normal;font-weight:normal;fill-opacity:1;stroke:none;font-family:sans-serif;text-anchor:start;fill:#000000' ><tspan>C:2</tspan></text>
<text x='137.139' y='91.5967' style='font-size:9px;font-style:normal;font-weight:normal;fill-opacity:1;stroke:none;font-family:sans-serif;text-anchor:start;fill:#000000' ><tspan>C:3</tspan></text>
<text x='127.595' y='117.653' style='font-size:9px;font-style:normal;font-weight:normal;fill-opacity:1;stroke:none;font-family:sans-serif;text-anchor:start;fill:#000000' ><tspan>C:4</tspan></text>
<text x='145.389' y='138.946' style='font-size:9px;font-style:normal;font-weight:normal;fill-opacity:1;stroke:none;font-family:sans-serif;text-anchor:start;fill:#000000' ><tspan>C:5</tspan></text>
<text x='100.258' y='122.416' style='font-size:9px;font-style:normal;font-weight:normal;fill-opacity:1;stroke:none;font-family:sans-serif;text-anchor:start;fill:#0000FF' ><tspan>N:6</tspan></text>
<text x='82.4642' y='101.123' style='font-size:9px;font-style:normal;font-weight:normal;fill-opacity:1;stroke:none;font-family:sans-serif;text-anchor:start;fill:#000000' ><tspan>C:7</tspan></text>
<text x='92.0079' y='75.0664' style='font-size:9px;font-style:normal;font-weight:normal;fill-opacity:1;stroke:none;font-family:sans-serif;text-anchor:start;fill:#000000' ><tspan>C:8</tspan></text>
<text x='119.345' y='70.3033' style='font-size:9px;font-style:normal;font-weight:normal;fill-opacity:1;stroke:none;font-family:sans-serif;text-anchor:start;fill:#0000FF' ><tspan>N:9</tspan></text>
<text x='52.0398' y='105.886' style='font-size:9px;font-style:normal;font-weight:normal;fill-opacity:1;stroke:none;font-family:sans-serif;text-anchor:start;fill:#000000' ><tspan>C:10</tspan></text>
<text x='34.2461' y='84.5925' style='font-size:9px;font-style:normal;font-weight:normal;fill-opacity:1;stroke:none;font-family:sans-serif;text-anchor:start;fill:#000000' ><tspan>C:11</tspan></text>
<text x='6.90871' y='89.3555' style='font-size:9px;font-style:normal;font-weight:normal;fill-opacity:1;stroke:none;font-family:sans-serif;text-anchor:start;fill:#000000' ><tspan>C:12</tspan></text>
<text x='-2.63507' y='115.412' style='font-size:9px;font-style:normal;font-weight:normal;fill-opacity:1;stroke:none;font-family:sans-serif;text-anchor:start;fill:#000000' ><tspan>C:13</tspan></text>
<text x='15.1586' y='136.705' style='font-size:9px;font-style:normal;font-weight:normal;fill-opacity:1;stroke:none;font-family:sans-serif;text-anchor:start;fill:#000000' ><tspan>C:14</tspan></text>
<text x='42.496' y='131.942' style='font-size:9px;font-style:normal;font-weight:normal;fill-opacity:1;stroke:none;font-family:sans-serif;text-anchor:start;fill:#000000' ><tspan>C:15</tspan></text>
<text x='70.3745' y='194' style='font-size:11px;font-style:normal;font-weight:normal;fill-opacity:1;stroke:none;font-family:sans-serif;text-anchor:start;fill:#000000' ><tspan>comp262</tspan></text>
</svg>
